svg/u203c.svg

<svg viewBox="0 0 128 128" xmlns="http://www.w3.org/2000/svg">
  <g>
    <path d="M49.8,88.1l1.8-80c0.1-2.2-1.8-4.1-4-4.1H35.9c-2.3,0-4.1,1.9-4,4.1l1.8,80c0.1,2.2,1.8,3.9,4,3.9h8 C47.9,92,49.7,90.3,49.8,88.1z" fill="#F44336"/>
    <g>
      <path d="M44,50c0.3-1.9-0.5-26.2-0.5-26.2s0.1-3.5-2.8-3.8 c-2.8-0.3-3.8,2.3-3.8,4.1c0,1.8,0.4,21.5,0.6,23.3c0.1,1.8,1.9,3.7,3.6,4.2S43.8,51.4,44,50z" opacity="0.2" fill="#FFFFFF" enable-background="new "/>
      <circle cx="39.6" cy="13.4" r="3.3" opacity="0.2" fill="#FFFFFF" enable-background="new "/>
    </g>
    <circle cx="44.1" cy="112" r="12" fill="#CC3333"/>
    <circle cx="42.4" cy="112" r="10.3" fill="#F44336"/>
    <path d="M36.5,108.4c1.2-1.8,3.8-3.3,6.5-3.7 c0.7-0.1,1.3-0.1,1.9,0.1c0.4,0.2,0.8,0.6,0.5,1c-0.2,0.4-0.7,0.5-1.1,0.6c-2.5,0.7-4.8,2.4-6.2,4.4c-0.5,0.8-1.4,2.9-2.4,2.4 C34.7,112.5,35,110.6,36.5,108.4z" opacity="0.2" fill="#FFFFFF" enable-background="new "/>
    <path d="M51.9,4h-4.3c2.3,0,4.1,1.9,4,4.1l-1.8,80c-0.1,2.2-1.8,3.9-4,3.9h4.3c2.2,0,4-1.7,4-3.9l1.8-80 C56,5.9,54.1,4,51.9,4z" fill="#CC3333"/>
  </g>
  <g>
    <path d="M89.8,88.1l1.8-80c0.1-2.2-1.8-4.1-4-4.1H75.9c-2.3,0-4.1,1.9-4,4.1l1.8,80c0.1,2.2,1.8,3.9,4,3.9h8 C87.9,92,89.7,90.3,89.8,88.1z" fill="#F44336"/>
    <g>
      <path d="M84,50c0.3-1.9-0.5-26.2-0.5-26.2s0.1-3.5-2.8-3.8 c-2.8-0.3-3.8,2.3-3.8,4.1c0,1.8,0.4,21.5,0.6,23.3c0.1,1.8,1.9,3.7,3.6,4.2C82.8,52.1,83.8,51.4,84,50z" opacity="0.2" fill="#FFFFFF" enable-background="new "/>
      <circle cx="79.6" cy="13.4" r="3.3" opacity="0.2" fill="#FFFFFF" enable-background="new "/>
    </g>
    <circle cx="84.1" cy="112" r="12" fill="#CC3333"/>
    <circle cx="82.4" cy="112" r="10.3" fill="#F44336"/>
    <path d="M76.5,108.4c1.2-1.8,3.8-3.3,6.5-3.7 c0.7-0.1,1.3-0.1,1.9,0.1c0.4,0.2,0.8,0.6,0.5,1c-0.2,0.4-0.7,0.5-1.1,0.6c-2.5,0.7-4.8,2.4-6.2,4.4c-0.5,0.8-1.4,2.9-2.4,2.4 C74.7,112.5,75,110.6,76.5,108.4z" opacity="0.2" fill="#FFFFFF" enable-background="new "/>
    <path d="M91.9,4h-4.3c2.3,0,4.1,1.9,4,4.1l-1.8,80c-0.1,2.2-1.8,3.9-4,3.9h4.3c2.2,0,4-1.7,4-3.9l1.8-80 C96,5.9,94.1,4,91.9,4z" fill="#CC3333"/>
  </g>
</svg>

<svg viewBox="0 0 128 128" xmlns="http://www.w3.org/2000/svg">
  <defs/>
  <path d="M49.8,88.1 L51.6,8.1 C51.7,5.9 49.8,4 47.6,4 L35.9,4 C33.6,4 31.8,5.9 31.9,8.1 L33.7,88.1 C33.8,90.3 35.5,92 37.7,92 L45.7,92 C47.9,92 49.7,90.3 49.8,88.1 Z" fill="#F44336"/>
  <path d="M44,50 C44.3,48.1 43.5,23.8 43.5,23.8 C43.5,23.8 43.6,20.3 40.7,20 C37.9,19.7 36.9,22.3 36.9,24.1 C36.9,25.9 37.3,45.6 37.5,47.4 C37.6,49.2 39.4,51.1 41.1,51.6 C42.8,52.1 43.8,51.4 44,50 Z" fill="#FFFFFF" opacity="0.2"/>
  <path d="M42.9,13.4 A3.3 3.3 0 1 1 36.3,13.4 A3.3 3.3 0 1 1 42.9,13.4 Z" fill="#FFFFFF" opacity="0.2"/>
  <path d="M56.1,112 A12 12 0 1 1 32.1,112 A12 12 0 1 1 56.1,112 Z" fill="#CC3333"/>
  <path d="M52.7,112 A10.3 10.3 0 1 1 32.1,112 A10.3 10.3 0 1 1 52.7,112 Z" fill="#F44336"/>
  <path d="M36.5,108.4 C37.7,106.6 40.3,105.1 43,104.7 C43.7,104.6 44.3,104.6 44.9,104.8 C45.3,105 45.7,105.4 45.4,105.8 C45.2,106.2 44.7,106.3 44.3,106.4 C41.8,107.1 39.5,108.8 38.1,110.8 C37.6,111.6 36.7,113.7 35.7,113.2 C34.7,112.5 35,110.6 36.5,108.4 Z" fill="#FFFFFF" opacity="0.2"/>
  <path d="M51.9,4 L47.6,4 C49.9,4 51.7,5.9 51.6,8.1 L49.8,88.1 C49.7,90.3 48,92 45.8,92 L50.1,92 C52.3,92 54.1,90.3 54.1,88.1 L55.9,8.1 C56,5.9 54.1,4 51.9,4 Z" fill="#CC3333"/>
  <path d="M89.8,88.1 L91.6,8.1 C91.7,5.9 89.8,4 87.6,4 L75.9,4 C73.6,4 71.8,5.9 71.9,8.1 L73.7,88.1 C73.8,90.3 75.5,92 77.7,92 L85.7,92 C87.9,92 89.7,90.3 89.8,88.1 Z" fill="#F44336"/>
  <path d="M84,50 C84.3,48.1 83.5,23.8 83.5,23.8 C83.5,23.8 83.6,20.3 80.7,20 C77.9,19.7 76.9,22.3 76.9,24.1 C76.9,25.9 77.3,45.6 77.5,47.4 C77.6,49.2 79.4,51.1 81.1,51.6 C82.8,52.1 83.8,51.4 84,50 Z" fill="#FFFFFF" opacity="0.2"/>
  <path d="M82.9,13.4 A3.3 3.3 0 1 1 76.3,13.4 A3.3 3.3 0 1 1 82.9,13.4 Z" fill="#FFFFFF" opacity="0.2"/>
  <path d="M96.1,112 A12 12 0 1 1 72.1,112 A12 12 0 1 1 96.1,112 Z" fill="#CC3333"/>
  <path d="M92.7,112 A10.3 10.3 0 1 1 72.1,112 A10.3 10.3 0 1 1 92.7,112 Z" fill="#F44336"/>
  <path d="M76.5,108.4 C77.7,106.6 80.3,105.1 83,104.7 C83.7,104.6 84.3,104.6 84.9,104.8 C85.3,105 85.7,105.4 85.4,105.8 C85.2,106.2 84.7,106.3 84.3,106.4 C81.8,107.1 79.5,108.8 78.1,110.8 C77.6,111.6 76.7,113.7 75.7,113.2 C74.7,112.5 75,110.6 76.5,108.4 Z" fill="#FFFFFF" opacity="0.2"/>
  <path d="M91.9,4 L87.6,4 C89.9,4 91.7,5.9 91.6,8.1 L89.8,88.1 C89.7,90.3 88,92 85.8,92 L90.1,92 C92.3,92 94.1,90.3 94.1,88.1 L95.9,8.1 C96,5.9 94.1,4 91.9,4 Z" fill="#CC3333"/>
</svg>
